X:31
T:The Dusty Miller
M:2/4
L:1/16
Z: Jason R. Fruit <Jason R. Fruit@big-mac>
R: breakdown
K:A
CB, |: A,2A,G, A,B,CD | EF=GE FEDB, | A,2A,G, A,B,CD | EGBd [ec][eA][eA]2 |
A,2A,G, A,B,CD | EFED E2FG | AB=cA BAFD | EFAB A2 ||
cd | ea2b a2af | edef =gfgf | ea2b aecA | EGBe [ec][eA][eA]2 |
ea2b a2af | ecef =gfga | b=gaf gecd | efed [ec][eA][eA]2 :|

